**kern	**text	**kern	**text	**kern	**text	**kern	**text	**kern	**text	**cdata-harm
*staff5	*staff5	*staff4	*staff4	*staff3	*staff3	*staff2	*staff2	*staff1	*staff1	*
=1-	=1-	=1-	=1-	=1-	=1-	=1-	=1-	=1-	=1-	=1-
*clefF4	*	*clefGv2	*	*clefG2	*	*clefG2	*	*clefG2	*	*
*k[]	*	*k[]	*	*k[]	*	*k[]	*	*k[]	*	*
*M4/4	*	*M4/4	*	*M4/4	*	*M4/4	*	*M4/4	*	*
1r	.	2e\	La	1r	.	2g/	La	1r	.	<CONcan_2v+2doub
.	.	4e\	fiam-	.	.	4g/	fiam-	.	.	.
.	.	4a\	ma	.	.	4cc\	ma	.	.	.
=2	=2	=2	=2	=2	=2	=2	=2	=2	=2	.
1r	.	8g\L	c'hai	2e/	La	8b/L	c'hai	2g/	La	.
.	.	8f\J	.	.	.	8a/J	.	.	.	.
.	.	8e\L	.	.	.	8g/L	.	.	.	.
.	.	8d\J	.	.	.	8f/J	.	.	.	.
.	.	4c\	.	4e/	fiam-	4e/	.	4g/	fiam-	.
.	.	4A/	nel	4a/	ma	4ee\	nel	4cc\	ma	.
=3	=3	=3	=3	=3	=3	=3	=3	=3	=3	.
1r	.	2e\	pet-	8g/L	c'hai	2ee\	pet-	8b/L	c'hai	.
.	.	.	.	8f/J	.	.	.	8a/J	.	.
.	.	.	.	8e/L	.	.	.	8g/L	.	.
.	.	.	.	8d/J	.	.	.	8f/J	.	.
.	.	2e\	to	4c/	.	2ee\	to	4e/	.	.
.	.	.	.	4A/	nel	.	.	4ee\	nel	.
=4	=4	=4	=4	=4	=4	=4	=4	=4	=4	.
1r	.	2r	.	2e/	pet-	2r	.	2ee\	pet-	.
.	.	2c\	Vien	2e/	to	2gg\	Vien	2ee\	to	><CONcan_2v+2doub
=5	=5	=5	=5	=5	=5	=5	=5	=5	=5	.
1r	.	4.d\	so-	2r	.	4.ff\	so-	2r	.	.
.	.	8d\	lo	.	.	8ff\	lo	.	.	.
.	.	4.e\	dal	2c/	Vien	4.ee\	dal	2gg\	Vien	.
.	.	8e\	sem-	.	.	8ee\	sem-	.	.	.
=6	=6	=6	=6	=6	=6	=6	=6	=6	=6	.
1r	.	2f\	bian-	4.d/	so-	2dd\	bian-	4.ff\	so-	.
.	.	.	.	8d/	lo	.	.	8ff\	lo	.
.	.	4g\	te	4.e/	dal	4cc\	te	4.ee\	dal	.
.	.	4c\	vien	.	.	4gg\	vien	.	.	.
.	.	.	.	8e/	sem-	.	.	8ee\	sem-	.
=7	=7	=7	=7	=7	=7	=7	=7	=7	=7	.
1r	.	4.d\	so-	2f/	bian-	4.ff\	so-	2dd\	bian-	.
.	.	8d\	lo	.	.	8ff\	lo	.	.	.
.	.	4.e\	dal	4g/	te	4.ee\	dal	4b\	te	.
.	.	.	.	4c/	vien-	.	.	4gg\	vien	.
.	.	8e\	sem-	.	.	8ee\	sem-	.	.	.
=8	=8	=8	=8	=8	=8	=8	=8	=8	=8	.
1r	.	2f\	bian-	4.d/	so-	2dd\	bian-	4.ff\	so-	.
.	.	.	.	8d/	lo	.	.	8ff\	lo	.
.	.	2g\	te	4.e/	dal	[2cc\	.	4.ee\	dal	.
.	.	.	.	8e/	sem-	.	.	8ee\	sem-	.
=9	=9	=9	=9	=9	=9	=9	=9	=9	=9	.
1r	.	1r	.	2f/	bian-	4cc\]	.	1dd\	bian	.
.	.	.	.	.	.	8b/L	.	.	.	.
.	.	.	.	.	.	8a/J	.	.	.	.
.	.	.	.	2g/	te	2b\	.	.	.	.
=10	=10	=10	=10	=10	=10	=10	=10	=10	=10	.
2r	.	2r	.	2r	.	2cc\	te	2ee\	te	>
2A\	Di	2e\	Di	2a/	Di	2ee\	Di	2cc#\	Di	<HOM_5v
=11	=11	=11	=11	=11	=11	=11	=11	=11	=11	.
2A\	ques-	2e\	ques-	2a/	ques-	2ee\	ques-	2cc\	ques-	.
4A\	toin-	4e\	toin-	4a/	toin-	4ee\	toin-	4cc\	toin-	.
[4A\	fi-	[4e\	fi-	[4a/	fi-	[4ee\	fi-	[4cc\	fi-	.
=12	=12	=12	=12	=12	=12	=12	=12	=12	=12	.
4A\]	.	4e\]	.	4a/]	.	4ee\]	.	4cc\]	.	.
4A\	do	4e\	do	4a/	do	4ee\	do	4cc\	do	.
[2D\	tuo	2d\	tuo	[2a/	tuo	[2ff\	tuo	[2dd\	tuo	.
=13	=13	=13	=13	=13	=13	=13	=13	=13	=13	.
2D\]	.	1A/	no-	2a/]	.	2ff\]	.	2dd\]	.	.
2C#/	no-	.	.	2a/	no-	2ee\	no-	2ee\	no-	.
=14	=14	=14	=14	=14	=14	=14	=14	=14	=14	.
2D\	vel-	2A/	vel-	1a/	vel-	1dd\	vel-	2ff\	vel-	>
2F\	l'A-	2A/	l'A-	.	.	.	.	2dd\	l'A-	<imit_5v
=15	=15	=15	=15	=15	=15	=15	=15	=15	=15	.
[1E\	man-	2.e\	man-	2.g/	l'A-	2.cc\	l'A-	[1ee\	man-	.
.	.	4d\	.	[4g/	man-	[4b/	man-	.	.	.
=16	=16	=16	=16	=16	=16	=16	=16	=16	=16	.
1E\]	.	4c\	.	8g/L]	.	8b/L]	.	1ee\]	.	.
.	.	.	.	8f/J	.	8a/J	.	.	.	.
.	.	8B/L	.	8e/L	.	2a/	.	.	.	.
.	.	8A/J	.	8d/J	.	.	.	.	.	.
.	.	2B\	.	2e/	.	.	.	.	.	.
.	.	.	.	.	.	4g#/	.	.	.	.
=17	=17	=17	=17	=17	=17	=17	=17	=17	=17	.
1A\	te.	1A/	te.	4e/	te.	1a/	te.	1cc#\	te.	>
.	.	.	.	2e/	Ma	.	.	.	.	<CON_2v+2trip
.	.	.	.	4a/	non	.	.	.	.	.
=18	=18	=18	=18	=18	=18	=18	=18	=18	=18	.
4r	.	4r	.	2g/	gi&agrave;	1r	.	4r	.	.
2c\	Ma	2e\	Ma	.	.	.	.	2gg\	Ma	.
.	.	.	.	2r	.	.	.	.	.	.
4A\	non	4a\	non	.	.	.	.	4ff\	non	.
=19	=19	=19	=19	=19	=19	=19	=19	=19	=19	.
4c\	gi&agrave;	2g\	gi&agrave;	4r	.	4r	.	2ee\	gi&agrave;	.
2C/	Ma	.	.	2cc\	Ma	2gg\	Ma	.	.	.
.	.	4e\	da	.	.	.	.	4ee\	da	.
4D\	non	4a\	l'in-	4a/	non	4ff\	non	4dd\	l'in-	.
=20	=20	=20	=20	=20	=20	=20	=20	=20	=20	.
2A\	gi&agrave;	4a\	ter-	4cc\	gi&agrave;	2ee\	gi&agrave;	2.cc\	ter-	.
.	.	4a\	no	2c/	da-	.	.	.	.	.
[2c\	da	2g\	co-	.	.	4ee\	da	.	.	.
.	.	.	.	4d/	l'in-	4dd\	l'in-	8b/L	.	.
.	.	.	.	.	.	.	.	8a/J	.	.
=21	=21	=21	=21	=21	=21	=21	=21	=21	=21	.
4c\]	.	4c\	re	2e/	ter-	2.cc\	ter-	2g/	.	.
4B\	l'in-	2g\	da	.	.	.	.	.	.	.
[2A\	ter-	.	.	4e/	.	.	.	2a/	no	.
.	.	4f\	l'in-	4d/	.	4dd\	.	.	.	.
=22	=22	=22	=22	=22	=22	=22	=22	=22	=22	.
2A\]	.	2e\	ter-	2.c/	.	2ee\	.	[1a/	co-	.
2A\	no	2e\	no	.	.	2ee\	no	.	.	.
.	.	.	.	4B/	no	.	.	.	.	.
=23	=23	=23	=23	=23	=23	=23	=23	=23	=23	.
1D\	co-	1d\	co-	1A/	co-	1ff\	co-	1a/]	.	.
=24	=24	=24	=24	=24	=24	=24	=24	=24	=24	.
1A\	re	1c#\	re	2A/	re	1ee\	re	1a/	re	>
.	.	.	.	4r	.	.	.	.	.	.
.	.	.	.	4a/	do	.	.	.	.	<CON_4v+1doub
=25	=25	=25	=25	=25	=25	=25	=25	=25	=25	.
4r	.	1r	.	4g/	v'ha	1r	.	4r	.	.
4d\	do-	.	.	4f/	ri-	.	.	4ff\	do	.
4c\	v'ha	.	.	2g/	cet-	.	.	4ee\	v'ha	.
4B\	ri-	.	.	.	.	.	.	4dd\	ri-	.
=26	=26	=26	=26	=26	=26	=26	=26	=26	=26	.
2A\	cet-	1r	.	2a/	to	4r	.	2cc\	cet-	.
.	.	.	.	.	.	4ff\	do	.	.	.
2G#\	to	.	.	[2e/	Ge-	4ee\	v'ha	2b\	to	.
.	.	.	.	.	.	4dd\	ri-	.	.	.
=27	=27	=27	=27	=27	=27	=27	=27	=27	=27	.
[1A\	Ge-	4r	.	4e/]	.	4.cc\	cet-	2a/	Ge-	.
.	.	4f\	do	4c/	lo	.	.	.	.	.
.	.	.	.	.	.	8b\	to	.	.	.
.	.	4e\	v'ha	2r	.	[2a/	Ge-	4a/	lo	.
.	.	4d\	ri-	.	.	.	.	4ff\	do-	.
=28	=28	=28	=28	=28	=28	=28	=28	=28	=28	.
1A\]	.	4c\	vet-	2r	.	2a/]	.	4ee\	v'ha	.
.	.	4B\	to	.	.	.	.	4dd\	ri-	.
.	.	8A\L	Ge-	4r	.	2ee\	lo	2cc\	cet-	.
.	.	8B\J	.	.	.	.	.	.	.	.
.	.	8c\L	.	4a/	do	.	.	.	.	.
.	.	8d\J	.	.	.	.	.	.	.	.
=29	=29	=29	=29	=29	=29	=29	=29	=29	=29	.
[1E\	lo	1e\	.	4g/	v'ha	[1ee\	Ge-	2b\	to	.
.	.	.	.	4f/	ri-	.	.	.	.	.
.	.	.	.	4e/	cet-	.	.	[2a/	Ge-	.
.	.	.	.	4d/	to	.	.	.	.	.
=30	=30	=30	=30	=30	=30	=30	=30	=30	=30	.
1E\]	.	1e\	lo	4c/	Ge-	1ee\]	.	2a/]	.	.
.	.	.	.	8B/L	.	.	.	.	.	.
.	.	.	.	8A/J	.	.	.	.	.	.
.	.	.	.	2B/	.	.	.	2g#/	.	.
=31	=31	=31	=31	=31	=31	=31	=31	=31	=31	.
4r	.	4r	.	4A/	lo	4cc#\	lo	1a/	lo	>
4A\	che	4c#\	che	4a/	che	4ee\	che	.	.	<HOM_4v
2A\	vin-	2c#\	vin-	2a/	vin-	2ee\	vin-	.	.	.
=32	=32	=32	=32	=32	=32	=32	=32	=32	=32	.
4A\	ce	4c\	ce	4a/	ce	4ee\	ce	1r	.	.
2A\	col	2c\	col	2a/	col	2ee\	col	.	.	.
4d\	suo	4d\	suo	4a/	suo	4ff#\	suo	.	.	.
=33	=33	=33	=33	=33	=33	=33	=33	=33	=33	.
1B\	fred-	1d#\	fred-	[1bn\	fred-	1ff\	fred-	1r	.	.
=34	=34	=34	=34	=34	=34	=34	=34	=34	=34	.
1E\	doil	2e\	doil	2b\]	.	1gg\	doil	1r	.	.
.	.	[2c\	ver-	2e/	doil	.	.	.	.	.
=35	=35	=35	=35	=35	=35	=35	=35	=35	=35	.
[1F\	ver-	4c\]	.	[1a/	ver-	1cc\	ver-	1r	.	.
.	.	4B\	.	.	.	.	.	.	.	.
.	.	4A/	.	.	.	.	.	.	.	.
.	.	4G/	.	.	.	.	.	.	.	.
=36	=36	=36	=36	=36	=36	=36	=36	=36	=36	.
1F\]	.	1A/	.	1a/]	.	1dd\	.	1r	.	.
=37	=37	=37	=37	=37	=37	=37	=37	=37	=37	.
1E\	no.	1B\	no.	1g#/	no.	1ee\	no.	2r	.	>
.	.	.	.	.	.	.	.	[2ee\	Ve-	<CON_5v
=38	=38	=38	=38	=38	=38	=38	=38	=38	=38	.
1r	.	1r	.	4r	.	1r	.	4ee\]	.	.
.	.	.	.	2a/	Ve-	.	.	4cc\	di	.
.	.	.	.	.	.	.	.	2cc\	tu	.
.	.	.	.	4f/	di	.	.	.	.	.
=39	=39	=39	=39	=39	=39	=39	=39	=39	=39	.
1r	.	1r	.	2f/	tu	1r	.	1dd\	las-	.
.	.	.	.	[2g/	las-	.	.	.	.	.
=40	=40	=40	=40	=40	=40	=40	=40	=40	=40	.
2.c\	Ve-	1r	.	2g/]	.	2r	.	2ee\	sa	.
.	.	.	.	2a/	sa	[2ee\	Ve-	[2cc\	ve-	.
4A\	di	.	.	.	.	.	.	.	.	.
=41	=41	=41	=41	=41	=41	=41	=41	=41	=41	.
1A\	tu	2.a\	Ve-	2r	.	4ee\]	.	4cc\]	.	.
.	.	.	.	.	.	4cc\	di	4a/	di	.
.	.	.	.	[2f/	Ve-	2cc\	tu	2a/	tu	.
.	.	4f\	di	.	.	.	.	.	.	.
=42	=42	=42	=42	=42	=42	=42	=42	=42	=42	.
[1B-\	las-	1f\	tu	4f/]	.	[1dd\	las-	1r	.	.
.	.	.	.	4d/	di	.	.	.	.	.
.	.	.	.	2d/	tu	.	.	.	.	.
=43	=43	=43	=43	=43	=43	=43	=43	=43	=43	.
1B-\]	.	1g\	las-	1d/	las-	1dd\]	.	1r	.	.
=44	=44	=44	=44	=44	=44	=44	=44	=44	=44	.
1A\	sa	2a\	sa	1e/	sa	1cc#\	sa	2r	.	>
.	.	4r	.	.	.	.	.	2aa\	o-	<ANTIF_6v+2mot
.	.	4A/	o-	.	.	.	.	.	.	.
=45	=45	=45	=45	=45	=45	=45	=45	=45	=45	.
1r	.	2B\	ve	2r	.	1r	.	4.gg\	ve	.
.	.	.	.	.	.	.	.	8ff\	ti	.
.	.	2c#\	ti	2A/	o-	.	.	4ee\	sei	.
.	.	.	.	.	.	.	.	4aa\	o-	.
=46	=46	=46	=46	=46	=46	=46	=46	=46	=46	.
2r	.	4d\	sei	2B/	ve	2r	.	4.gg\	ve	.
.	.	4G/	tras-	.	.	.	.	.	.	.
.	.	.	.	.	.	.	.	8ff\	ti	.
4r	.	4A/	la-	2c#/	ti	4r	.	2ee\	sei	.
4A\	o-	4A/	ta	.	.	4aa\	o-	.	.	.
=47	=47	=47	=47	=47	=47	=47	=47	=47	=47	.
2B\	ve	2r	.	4d/	sei	4.gg\	ve	1r	.	.
.	.	.	.	4G/	tras-	.	.	.	.	.
.	.	.	.	.	.	8ff\	ti	.	.	.
2c#\	ti	4r	.	4A/	la-	4ee\	sei	.	.	.
.	.	4A/	o-	4A/	ta	4aa\	o-	.	.	.
=48	=48	=48	=48	=48	=48	=48	=48	=48	=48	.
4d\	sei	2B\	ve	2r	.	4.gg\	ve	2r	.	.
4G\	tras-	.	.	.	.	.	.	.	.	.
.	.	.	.	.	.	8ff\	ti	.	.	.
4A\	la-	2c#\	ti	4r	.	2ee\	sei	4r	.	.
4A\	ta	.	.	4A/	o-	.	.	4aa\	o-	.
=49	=49	=49	=49	=49	=49	=49	=49	=49	=49	.
1r	.	4d\	sei	2B/	ve	2r	.	4.gg\	ve	.
.	.	4G/	tras-	.	.	.	.	.	.	.
.	.	.	.	.	.	.	.	8ff\	ti	.
.	.	4A/	la-	2c#/	ti	4r	.	2ee\	sei	.
.	.	4A/	ta	.	.	4aa\	o-	.	.	.
=50	=50	=50	=50	=50	=50	=50	=50	=50	=50	.
1r	.	1r	.	2d/	sei	4gg\	ve	4r	.	.
.	.	.	.	.	.	4ff\	ti	4aa\	o-	.
.	.	.	.	2G/	tras-	4ee\	sei	4gg\	ve	.
.	.	.	.	.	.	4dd\	tras-	4ff\	ti	.
=51	=51	=51	=51	=51	=51	=51	=51	=51	=51	.
1r	.	1r	.	1A/	la-	4cc#\	la-	4ee\	sei	.
.	.	.	.	.	.	2dd\	.	4dd\	tras-	.
.	.	.	.	.	.	.	.	2ee\	la-	.
.	.	.	.	.	.	4cc#\	.	.	.	.
=52	=52	=52	=52	=52	=52	=52	=52	=52	=52	.
1r	.	2r	.	2d/	ta	2dd\	ta	2ff#\	ta	>
.	.	4r	.	2a/	Cre-	4r	.	4r	.	<HOMlib_4v
.	.	4d\	Cre-	.	.	4ff#\	Cre-	4dd\	Cre-	.
=53	=53	=53	=53	=53	=53	=53	=53	=53	=53	.
1r	.	4B\	den-	4g/	den-	2.gg\	den-	4dd\	den-	.
.	.	[4c\	does-	[4e/	does-	.	.	2ee\	does-	.
.	.	8c\L]	.	8e/L]	.	.	.	.	.	.
.	.	8c\J	ser	8e/J	ser	.	.	.	.	.
.	.	4d\	a-	4a/	a-	4ff\	does-	4dd\	ser	.
=54	=54	=54	=54	=54	=54	=54	=54	=54	=54	.
1r	.	1A/	ma-	1a/	ma-	4ee\	ser	4cc#\	a-	.
.	.	.	.	.	.	4ff\	a-	2dd\	ma-	.
.	.	.	.	.	.	2ee\	ma-	.	.	.
.	.	.	.	.	.	.	.	4cc#\	.	.
=55	=55	=55	=55	=55	=55	=55	=55	=55	=55	.
2r	.	2d\	ta?	2f#/	ta?	2dd\	ta?	2.dd\	ta?	>
4r	.	4r	.	4r	.	4r	.	.	.	.
4G\	Cre-	4d\	Cre-	4g/	Cre-	4b\	Cre-	4dd\	Cre-	<HOMlib_5v
=56	=56	=56	=56	=56	=56	=56	=56	=56	=56	.
4E\	den-	8e\L	den-	4g/	den-	2.cc\	den-	4gg\	den-	.
.	.	8d\J	.	.	.	.	.	.	.	.
[4F\	does-	8c\L	.	2a/	does-	.	.	[4ff\	does-	.
.	.	8B\J	.	.	.	.	.	.	.	.
8F\L]	.	4A/	.	.	.	.	.	8ff\L]	.	.
8F\J	ser	.	.	.	.	.	.	8ff\J	ser	.
4G\	a-	[4d\	does-	4g/	ser	4b\	does-	4dd\	a-	.
=57	=57	=57	=57	=57	=57	=57	=57	=57	=57	.
1D\	ma-	8d\L]	.	4f#/	a-	4a/	ser	1dd\	ma-	.
.	.	8c\J	ser	.	.	.	.	.	.	.
.	.	4B\	a-	2g/	ma-	4g/	a-	.	.	.
.	.	2A/	ma-	.	.	2a/	ma-	.	.	.
.	.	.	.	4f#/	.	.	.	.	.	.
=58	=58	=58	=58	=58	=58	=58	=58	=58	=58	.
1G\	ta?	1G/	ta?	1g/	ta?	1b\	ta?	1dd\	ta?	>
=59	=59	=59	=59	=59	=59	=59	=59	=59	=59	.
[1C/	Deh	2.g\	Deh	2e/	Deh	2.cc\	Deh	2r	.	<ANTIF_2v
.	.	.	.	[2c/	Deh	.	.	[2gg\	Deh	.
.	.	8e\L	che	.	.	8ee\L	che	.	.	.
.	.	8d\J	tra-	.	.	8ff\J	tra-	.	.	.
=60	=60	=60	=60	=60	=60	=60	=60	=60	=60	.
1C/]	.	2c\	se	4c/]	.	1gg\	se	4gg\]	.	.
.	.	.	.	8e/L	che	.	.	8ee\L	che	.
.	.	.	.	8f/J	tra-	.	.	8dd\J	tra-	.
.	.	4e\	for-	2g/	se	.	.	2cc\	se	><CONcan_5v
.	.	8e\L	se	.	.	.	.	.	.	.
.	.	8d\J	ti	.	.	.	.	.	.	.
=61	=61	=61	=61	=61	=61	=61	=61	=61	=61	.
2.c\	Deh	4c\	scher-	4e/	for-	1r	.	1r	.	.
.	.	4A/	ne	8e/L	se	.	.	.	.	.
.	.	.	.	8d/J	ti-	.	.	.	.	.
.	.	4e\	for-	4c/	scher-	.	.	.	.	.
8e\L	che	8e\L	se	4A/	ne	.	.	.	.	.
8f\J	tra-	8d\J	ti	.	.	.	.	.	.	.
=62	=62	=62	=62	=62	=62	=62	=62	=62	=62	.
2g\	se	4c\	scher-	4e/	for-	1r	.	2r	.	.
.	.	4B\	ne	8e/L	se	.	.	.	.	.
.	.	.	.	8d/J	ti	.	.	.	.	.
4e\	for-	2r	.	4c/	scher-	.	.	[2cc\	Deh	.
8e\L	se	.	.	4A/	ne	.	.	.	.	.
8d\J	ti	.	.	.	.	.	.	.	.	.
=63	=63	=63	=63	=63	=63	=63	=63	=63	=63	.
4c\	scher-	1r	.	1r	.	2.cc\	Deh	4cc\]	.	.
4A\	ne	.	.	.	.	.	.	8ee\L	che	.
.	.	.	.	.	.	.	.	8ff\J	tra-	.
4e\	for-	.	.	.	.	.	.	2gg\	se	.
8e\L	se	.	.	.	.	8ee\L	che	.	.	.
8d\J	ti	.	.	.	.	8ff\J	tra-	.	.	.
=64	=64	=64	=64	=64	=64	=64	=64	=64	=64	.
4c\	scher-	1r	.	1r	.	2gg\	se	4ee\	for-	.
4B\	ne	.	.	.	.	.	.	8ee\L	se	.
.	.	.	.	.	.	.	.	8dd\J	ti	.
2r	.	.	.	.	.	4ee\	for-	4cc\	scher-	.
.	.	.	.	.	.	8ee\L	se	4a/	ne	.
.	.	.	.	.	.	8dd\J	ti	.	.	.
=65	=65	=65	=65	=65	=65	=65	=65	=65	=65	.
1r	.	1r	.	1r	.	4cc\	scher-	4ee\	for-	.
.	.	.	.	.	.	4a/	ne	8ee\L	se	.
.	.	.	.	.	.	.	.	8dd\J	ti	.
.	.	.	.	.	.	4ee\	for-	4cc\	scher-	.
.	.	.	.	.	.	8ee\L	se	4a/	ne	.
.	.	.	.	.	.	8dd\J	ti	.	.	.
=66	=66	=66	=66	=66	=66	=66	=66	=66	=66	.
1A\	e	2r	.	1e/	e	4cc\	scher-	2r	.	><HOM_5v
.	.	.	.	.	.	4a/	ne	.	.	.
.	.	2c#\	e	.	.	4r	.	2ee\	e	.
.	.	.	.	.	.	4a/	e	.	.	.
=67	=67	=67	=67	=67	=67	=67	=67	=67	=67	.
1D/	di-	1d\	di-	1f/	di-	1a/	di-	1dd\	di-	.
=68	=68	=68	=68	=68	=68	=68	=68	=68	=68	.
1A\	ce	4c#\	ce	4e/	ce	1a/	ce	1ee\	ce	>
.	.	2e\	Ec-	2cc\	Ec-	.	.	.	.	<ANTIF_3v
.	.	4c#\	co	4a/	co	.	.	.	.	.
=69	=69	=69	=69	=69	=69	=69	=69	=69	=69	.
4r	.	1r	.	2cc\	Ec-	1r	.	4r	.	.
2f\	Ec-	.	.	.	.	.	.	2aa\	Ec-	.
.	.	.	.	2a/	co	.	.	.	.	.
4d\	co	.	.	.	.	.	.	4ff\	co	.
=70	=70	=70	=70	=70	=70	=70	=70	=70	=70	.
2f\	Ec-	4r	.	2r	.	4r	.	2aa\	Ec-	.
.	.	2a\	Ec-	.	.	2ff\	Ec-	.	.	.
2d\	co	.	.	4r	.	.	.	2ff\	co	.
.	.	4f\	co	4a/	ch'&agrave;	4dd\	co	.	.	<<CON_3v+1doub
=71	=71	=71	=71	=71	=71	=71	=71	=71	=71	.
2r	.	2a\	Ec-	2d/	me	2ff\	Ec-	4r	.	.
.	.	.	.	.	.	.	.	4dd\	c'h&agrave;	.
2d\	c'h&agrave;	2f#\	co	2a/	sol-	2dd\	co	4dd\	me	>
.	.	.	.	.	.	.	.	4a/	sol-	.
=72	=72	=72	=72	=72	=72	=72	=72	=72	=72	.
2G\	me	4r	.	4g/	li-	4r	.	2b-\	li-	.
.	.	4g\	c'h&agrave;	4d/	ce	4dd\	c'h&agrave;	.	.	.
2A\	sol-	4e\	me	2r	.	4cc#\	me	4a/	ce	.
.	.	4e\	sol-	.	.	4cc#\	sol-	[4a/	il	<ANTIF_5v
=73	=73	=73	=73	=73	=73	=73	=73	=73	=73	.
1D\	li-	1f\	li-	1r	.	2dd\	li-	4a/]	.	.
.	.	.	.	.	.	.	.	4a/	bel	.
.	.	.	.	.	.	2dd\	ce	2a/	lau-	>>
=74	=74	=74	=74	=74	=74	=74	=74	=74	=74	.
[1A\	ce	4e\	ce	1r	.	4r	.	4g/	ro	.
.	.	2a\	il	.	.	2cc\	il	4f/	sec-	.
.	.	.	.	.	.	.	.	2e/	car	.
.	.	4a\	bel	.	.	4cc\	bel	.	.	.
=75	=75	=75	=75	=75	=75	=75	=75	=75	=75	.
1A\_	.	2a\	lau-	2r	.	2cc\	lau-	1r	.	.
.	.	4g\	ro	4r	.	2dd\	ro	.	.	.
.	.	4f\	sec-	[4a/	il	.	.	.	.	.
=76	=76	=76	=76	=76	=76	=76	=76	=76	=76	.
1A\]	.	4e\	car	4a/]	.	2ee\	sec-	4cc\	il	.
.	.	2e\	lau-	4a/	bel	.	.	4cc\	bel	.
.	.	.	.	2a/	lau-	2a/	car	2cc\	lau-	.
.	.	4c\	ro	.	.	.	.	.	.	.
=77	=77	=77	=77	=77	=77	=77	=77	=77	=77	.
2r	.	2d\	che	4g/	ro	2r	.	4b\	ro	.
.	.	.	.	4f/	sec-	.	.	4a/	sec-	.
[2c\	il	2e\	sfac-	2e/	car	[2ee\	il	2g/	car	.
=78	=78	=78	=78	=78	=78	=78	=78	=78	=78	.
4c\]	.	1A/	cio	4cc\	il	4ee\]	.	1r	.	.
4c\	bel	.	.	4cc\	bel	4ee\	bel	.	.	.
2c\	lau-	.	.	2cc\	lau-	2ee\	lau-	.	.	.
=79	=79	=79	=79	=79	=79	=79	=79	=79	=79	.
2d\	ro	2r	.	4b\	ro	4dd\	ro	2r	.	.
.	.	.	.	4a/	sec-	4cc\	sec-	.	.	.
2e\	sec-	[2e\	lau-	2g#/	car	2b\	car	[2ee\	il	<CON_4v+1doub
=80	=80	=80	=80	=80	=80	=80	=80	=80	=80	.
1A\	car	2e\]	.	2r	.	1r	.	4ee\]	.	.
.	.	.	.	.	.	.	.	4ee\	bel	.
.	.	2c#\	ro	2a/	lau-	.	.	2ee\	lau-	.
=81	=81	=81	=81	=81	=81	=81	=81	=81	=81	.
2r	.	2d\	che	2f#/	ro	2r	.	4dd\	ro	.
.	.	.	.	.	.	.	.	4cc\	sec-	.
2E\	lau-	2e\	sfac-	2g/	che	2gg\	lau-	2b\	car	>
=82	=82	=82	=82	=82	=82	=82	=82	=82	=82	.
2C#/	ro	2e\	cio	2.a/	sfac-	2ee\	ro	2r	.	.
2D\	che	2d\	lau-	.	.	2ff\	che	2dd\	lau-	.
.	.	.	.	[4bn\	cio	.	.	.	.	.
=83	=83	=83	=83	=83	=83	=83	=83	=83	=83	.
1E\	sfac-	2G/	ro	4b\]	.	2ee\	sfac-	2b\	ro	.
.	.	.	.	4a/	lau-	.	.	.	.	.
.	.	2A/	che	[2a/	ro	2ee\	cio	2cc\	che	.
=84	=84	=84	=84	=84	=84	=84	=84	=84	=84	.
1E\	cio	1B\	sfac-	2a/]	.	4r	.	2b\	sfac-	.
.	.	.	.	.	.	4ee\	Col	.	.	<<CON_3v+1doub+1trip
.	.	.	.	2g#/	che	4ee\	fin-	2b\	cio	.
.	.	.	.	.	.	4b\	to	.	.	.
=85	=85	=85	=85	=85	=85	=85	=85	=85	=85	.
4r	.	2A/	cio-	2a/	cio	8cc\L	fo-	4r	.	>
.	.	.	.	.	.	8dd\J	.	.	.	.
4c\	Col	.	.	.	.	8ee\L	.	4ee\	Col	.
.	.	.	.	.	.	8ff\J	.	.	.	.
4c\	fin-	2r	.	2r	.	4gg\	.	4ee\	fin-	.
4G\	to	.	.	.	.	4gg\	co	4b\	to	.
=86	=86	=86	=86	=86	=86	=86	=86	=86	=86	.
8A\L	fo-	4r	.	4r	.	4r	.	8cc\L	fo-	.
8B\J	.	.	.	.	.	.	.	8dd\J	.	.
8c\L	.	4c\	Col	4e/	Col	4gg\	Col	8ee\L	.	.
8d\J	.	.	.	.	.	.	.	8ff\J	.	.
4e\	.	4c\	fin-	4e/	fin-	4.ee\	fin-	4gg\	.	<CON_3v+2doub
4e\	co	4G/	to	4B/	to	.	.	4gg\	co	.
.	.	.	.	.	.	8dd\	to	.	.	.
=87	=87	=87	=87	=87	=87	=87	=87	=87	=87	.
2r	.	8A\L	fo-	8c/L	fo-	2.cc\	fo-	4r	.	.
.	.	8B\J	.	8d/J	.	.	.	.	.	.
.	.	8c\L	.	8e/L	.	.	.	4gg\	Col	.
.	.	8d\J	.	8f/J	.	.	.	.	.	.
2c\	e	4e\	.	4g/	.	.	.	4.ee\	fin-	.
.	.	4e\	co	4e/	coe	4g/	co	.	.	>>
.	.	.	.	.	.	.	.	8dd\	to	.
=88	=88	=88	=88	=88	=88	=88	=88	=88	=88	.
4c\	col	2r	.	4e/	col	2r	.	2.cc\	fo-	.
4f\	non	.	.	4a/	non	.	.	.	.	.
8e\L	fin-	4r	.	8g/L	fin-	4r	.	.	.	.
8d\J	.	.	.	8f/J	.	.	.	.	.	.
8c\L	.	4e\	e	8e/L	.	4cc\	e	4g/	co	.
8B\J	.	.	.	8d/J	.	.	.	.	.	.
=89	=89	=89	=89	=89	=89	=89	=89	=89	=89	.
4.A\	to	4e\	col	4.c/	to	4cc\	col	2r	.	.
.	.	4a\	non	.	.	4ff\	non	.	.	.
8B\	.	.	.	8d/	.	.	.	.	.	.
[2c\	ghiac-	8g\L	fin-	2e/	ghiac-	8ee\L	fin-	4r	.	.
.	.	8f\J	.	.	.	8dd\J	.	.	.	.
.	.	8e\L	.	.	.	8cc\L	.	4cc\	e	.
.	.	8d\J	.	.	.	8b\J	.	.	.	.
=90	=90	=90	=90	=90	=90	=90	=90	=90	=90	.
4c\]	.	2.c\	to	2e/	cio	4.a/	to	4cc\	col	.
4A\	cio	.	.	.	.	.	.	4ff\	non	.
.	.	.	.	.	.	8b\	ghiac-	.	.	.
4r	.	.	.	4r	.	2cc\	.	8ee\L	fin-	.
.	.	.	.	.	.	.	.	8dd\J	.	.
4c\	e	4A/	e	4e/	e	.	.	8cc\L	.	.
.	.	.	.	.	.	.	.	8b\J	.	.
=91	=91	=91	=91	=91	=91	=91	=91	=91	=91	.
4c\	col	4A/	col	4e/	col	2cc\	cio	4.a/	to	.
4f\	non	4F/	non	4a/	non	.	.	.	.	.
.	.	.	.	.	.	.	.	8b\	ghiac-	.
8e\L	fin-	4.c\	fin-	8g/L	fin-	4r	.	4cc\	.	.
8d\J	.	.	.	8f/J	.	.	.	.	.	.
8c\L	.	.	.	8e/L	.	4cc\	e	4g/	cio	.
8B\J	.	8d\	to	8d/J	.	.	.	.	.	.
=92	=92	=92	=92	=92	=92	=92	=92	=92	=92	.
[1A\	.	4e\	ghiac-	4.c/	to	4cc\	col	4r	.	.
.	.	4A/	cio	.	.	4ff\	non	4cc\	e	.
.	.	.	.	8d/	.	.	.	.	.	.
.	.	2r	.	4e/	ghiac-	8ee\L	fin-	4cc\	col	.
.	.	.	.	.	.	8dd\J	.	.	.	.
.	.	.	.	4A/	cio	8cc\L	.	4ff\	non	.
.	.	.	.	.	.	8b\J	.	.	.	.
=93	=93	=93	=93	=93	=93	=93	=93	=93	=93	.
2A\]	.	4r	.	4r	.	4.cc\	.	8ee\L	fin-	.
.	.	.	.	.	.	.	.	8dd\J	.	.
.	.	4e\	e	4a/	e	.	.	8cc\L	.	.
.	.	.	.	.	.	8dd\	.	8b\J	.	.
2A\	to	4e\	col	4a/	col	[2ee\	.	2a/	to	.
.	.	4a\	non	4cc\	non	.	.	.	.	.
=94	=94	=94	=94	=94	=94	=94	=94	=94	=94	.
[1E\	ghiac-	8g\L	fin-	8b/L	fin-	2ee\]	.	2b\	ghiac-	.
.	.	8f\J	.	8a/J	.	.	.	.	.	.
.	.	8e\L	.	8g/L	.	.	.	.	.	.
.	.	8d\J	.	8f/J	.	.	.	.	.	.
.	.	4c\	.	[2e/	.	2ee\	to	4cc\	.	.
.	.	4c\	to	.	.	.	.	8b/L	.	.
.	.	.	.	.	.	.	.	8a/J	.	.
=95	=95	=95	=95	=95	=95	=95	=95	=95	=95	.
1E\]	.	1B\	ghiac-	4e/]	.	1ee\	ghiac-	4g#/	.	.
.	.	.	.	4e/	to	.	.	2a/	.	.
.	.	.	.	2e/	ghiac-	.	.	.	.	.
.	.	.	.	.	.	.	.	4g#/	.	.
=96	=96	=96	=96	=96	=96	=96	=96	=96	=96	.
1A\	cio.	1A/	cio.	1e/	cio.	1cc#\	cio.	1a/	cio.	>
==	==	==	==	==	==	==	==	==	==	==
*-	*-	*-	*-	*-	*-	*-	*-	*-	*-	*-